X:236
T:Kingsbridge Assembly. JC.241
T:Liberty For The Sailors, aka. JC.241
R:Jig
S:John Clare,Poet,Helpstone (1793-1864)
O:England
A:Northamptonshire
Z:vmp.Phil Headford
M:6/8
L:1/8
Q:3/8=120
K:D
g2ef2e|\
dcdA2A|BGB AFA|GDGF2D|!
f2ef2e|dcdA2A|BAG FGE|D2D” crot”D3:|!
|:CFA AFD|GABB3|Ace ecA|def” crot”f3|!
afd BcB|gec ABA|BAG FGE|D2D” qu”D3:|

